X: 5
T: Drummond Castle
R: jig
M: 6/8
L: 1/8
K: Amin
G|: ~A3 a3 | age g3| c3 edc | Bdg dBG |
~ABA a3| age g3 | ege deg |1 edB A2G :|2 edB A2B ||
|: c3 cec | d3 ded |c3 cec | Bdg dBG|
~c3 edc | deg a2g |ege deg |1 edB A2B :|2 edB A2G ||